templates/main/source/images/point-big.svg

<?xml version="1.0" encoding="utf-8"?>
<svg width="32px" height="32px" viewBox="0 0 32 32" version="1.1" xmlns:xlink="http://www.w3.org/1999/xlink" xmlns="http://www.w3.org/2000/svg">
  <desc>Created with Lunacy</desc>
  <g id="plus">
    <path d="M16 32C24.8366 32 32 24.8366 32 16C32 7.16344 24.8366 0 16 0C7.16344 0 0 7.16344 0 16C0 24.8366 7.16344 32 16 32Z" id="Oval" fill="#FFFFFF" stroke="none" />
    <path d="M10.6682 0L10.6662 0Q10.6006 0 10.5363 0.0127912Q10.472 0.0255825 10.4114 0.0506734Q10.3509 0.0757643 10.2964 0.112191Q10.2418 0.148617 10.1955 0.194979Q10.1491 0.241341 10.1127 0.295857Q10.0763 0.350373 10.0512 0.410948Q10.0261 0.471522 10.0133 0.535828Q10.0005 0.600134 10.0005 0.6657L10.0005 10.0005L0.665699 10.0005Q0.600133 10.0005 0.535828 10.0133Q0.471522 10.0261 0.410947 10.0512Q0.350372 10.0763 0.295856 10.1127Q0.241341 10.1491 0.194979 10.1955Q0.148617 10.2418 0.11219 10.2964Q0.0757642 10.3509 0.0506733 10.4114Q0.0255824 10.472 0.0127912 10.5363Q0 10.6006 0 10.6662L0 10.6682Q0 10.7338 0.0127912 10.7981Q0.0255824 10.8624 0.0506733 10.923Q0.0757642 10.9835 0.11219 11.038Q0.148617 11.0926 0.194979 11.1389Q0.241341 11.1853 0.295856 11.2217Q0.350372 11.2581 0.410947 11.2832Q0.471522 11.3083 0.535828 11.3211Q0.600133 11.3339 0.665699 11.3339L10.0005 11.3339L10.0005 20.6687Q10.0005 20.7343 10.0133 20.7986Q10.0261 20.8629 10.0512 20.9235Q10.0763 20.984 10.1127 21.0385Q10.1491 21.0931 10.1955 21.1394Q10.2418 21.1858 10.2964 21.2222Q10.3509 21.2586 10.4114 21.2837Q10.472 21.3088 10.5363 21.3216Q10.6006 21.3344 10.6662 21.3344L10.6682 21.3344Q10.7338 21.3344 10.7981 21.3216Q10.8624 21.3088 10.923 21.2837Q10.9835 21.2586 11.038 21.2222Q11.0926 21.1858 11.1389 21.1394Q11.1853 21.0931 11.2217 21.0385Q11.2581 20.984 11.2832 20.9235Q11.3083 20.8629 11.3211 20.7986Q11.3339 20.7343 11.3339 20.6687L11.3339 11.3339L20.6687 11.3339Q20.7343 11.3339 20.7986 11.3211Q20.8629 11.3083 20.9235 11.2832Q20.984 11.2581 21.0385 11.2217Q21.0931 11.1853 21.1394 11.1389Q21.1858 11.0926 21.2222 11.038Q21.2586 10.9835 21.2837 10.923Q21.3088 10.8624 21.3216 10.7981Q21.3344 10.7338 21.3344 10.6682L21.3344 10.6662Q21.3344 10.6006 21.3216 10.5363Q21.3088 10.472 21.2837 10.4114Q21.2586 10.3509 21.2222 10.2964Q21.1858 10.2418 21.1394 10.1955Q21.0931 10.1491 21.0385 10.1127Q20.984 10.0763 20.9235 10.0512Q20.8629 10.0261 20.7986 10.0133Q20.7343 10.0005 20.6687 10.0005L11.3339 10.0005L11.3339 0.6657Q11.3339 0.600134 11.3211 0.535828Q11.3083 0.471522 11.2832 0.410948Q11.2581 0.350373 11.2217 0.295857Q11.1853 0.241341 11.1389 0.194979Q11.0926 0.148617 11.038 0.112191Q10.9835 0.0757643 10.923 0.0506734Q10.8624 0.0255825 10.7981 0.0127912Q10.7338 0 10.6682 0Z" transform="matrix(0.7071068 0.7071068 -0.7071068 0.7071068 16.0008 0.9151025)" id="Combined-Shape" fill="#8C0014" fill-rule="evenodd" stroke="none" />
  </g>
</svg>

<svg width="32" height="32" viewBox="0 0 32 32" xmlns:xlink="http://www.w3.org/1999/xlink" xmlns="http://www.w3.org/2000/svg"><g id="plus" stroke="none"><path d="M16 32c8.837 0 16-7.163 16-16S24.837 0 16 0 0 7.163 0 16s7.163 16 16 16z" id="Oval" fill="#FFF"/><path d="M10.668 0h-.002q-.065 0-.13.013-.064.013-.125.038-.06.025-.115.061-.054.037-.1.083-.047.046-.083.1-.037.055-.062.116-.025.06-.038.125-.012.064-.012.13V10H.665q-.066 0-.13.012-.064.013-.125.038-.06.025-.115.062-.055.036-.101.082-.046.047-.083.101-.036.055-.061.115-.025.061-.038.125-.013.065-.013.13v.002q0 .066.013.13t.038.125q.025.06.061.115.037.055.083.1.046.047.1.084.055.036.116.061.06.025.125.038.064.013.13.013H10v9.335q0 .065.012.13.013.064.038.125.025.06.062.114.036.055.082.101.047.047.101.083.055.037.115.062.061.025.125.038.065.012.13.012h.002q.066 0 .13-.012.064-.013.125-.038.06-.025.115-.062.055-.036.1-.083.047-.046.084-.1.036-.055.061-.116.025-.06.038-.124.013-.065.013-.13v-9.335h9.335q.065 0 .13-.013.064-.013.125-.038.06-.025.114-.061.055-.037.101-.083.047-.046.083-.101.037-.055.062-.115.025-.06.038-.125.012-.064.012-.13v-.002q0-.065-.012-.13-.013-.064-.038-.125-.025-.06-.062-.115-.036-.054-.083-.1-.046-.047-.1-.083-.055-.037-.116-.062-.06-.025-.124-.038-.065-.012-.13-.012h-9.335V.665q0-.066-.013-.13T11.283.41q-.025-.06-.061-.115-.037-.055-.083-.101-.046-.046-.101-.083-.055-.036-.115-.061-.06-.025-.125-.038Q10.734 0 10.668 0z" transform="rotate(45 6.896 19.772)" id="Combined-Shape" fill="#8C0014" fill-rule="evenodd"/></g></svg>
